src/Static/Positions/ks-position-17.svg

<?xml version="1.0" encoding="UTF-8"?>
<svg width="160px" height="166px" viewBox="0 0 160 166" version="1.1" xmlns="http://www.w3.org/2000/svg" xmlns:xlink="http://www.w3.org/1999/xlink">
    <title>sex-etsy-17</title>
    <defs>
        <path d="M14.3429119,54.2494454 C10.8750637,53.2796473 7.25511301,55.2234316 6.25658026,58.5915495 C5.25876621,61.9572559 7.2594252,65.4754472 10.7273387,66.4451819 L37.742932,74 C37.7703079,69.3849717 38.1621942,65.2643291 39,61.1447653 L14.3429119,54.2494454 Z" id="path-1"></path>
        <filter x="-24.2%" y="-30.0%" width="149.0%" height="181.6%" filterUnits="objectBoundingBox" id="filter-2">
            <feMorphology radius="1" operator="dilate" in="SourceAlpha" result="shadowSpreadOuter1"></feMorphology>
            <feOffset dx="0" dy="2" in="shadowSpreadOuter1" result="shadowOffsetOuter1"></feOffset>
            <feGaussianBlur stdDeviation="2" in="shadowOffsetOuter1" result="shadowBlurOuter1"></feGaussianBlur>
            <feComposite in="shadowBlurOuter1" in2="SourceAlpha" operator="out" result="shadowBlurOuter1"></feComposite>
            <feColorMatrix values="0 0 0 0 0   0 0 0 0 0   0 0 0 0 0  0 0 0 0.5 0" type="matrix" in="shadowBlurOuter1"></feColorMatrix>
        </filter>
        <ellipse id="path-3" cx="75.3735614" cy="21.6648774" rx="14.9632353" ry="14.9704801"></ellipse>
        <filter x="-26.7%" y="-20.0%" width="153.5%" height="153.4%" filterUnits="objectBoundingBox" id="filter-4">
            <feMorphology radius="1" operator="dilate" in="SourceAlpha" result="shadowSpreadOuter1"></feMorphology>
            <feOffset dx="0" dy="2" in="shadowSpreadOuter1" result="shadowOffsetOuter1"></feOffset>
            <feGaussianBlur stdDeviation="2" in="shadowOffsetOuter1" result="shadowBlurOuter1"></feGaussianBlur>
            <feComposite in="shadowBlurOuter1" in2="SourceAlpha" operator="out" result="shadowBlurOuter1"></feComposite>
            <feColorMatrix values="0 0 0 0 0   0 0 0 0 0   0 0 0 0 0  0 0 0 0.5 0" type="matrix" in="shadowBlurOuter1"></feColorMatrix>
        </filter>
        <path d="M40.6283759,93.3525316 C39.502646,92.1844768 38.695833,90.739104 38.2917811,89.1665287 C38.0228865,88.445055 37.7978179,87.6720748 37.6096046,86.862906 L7.69749841,83.1204843 C4.19902835,82.4422199 0.807703056,84.6962509 0.12171841,88.1556102 C-0.563749876,91.6126081 1.71527081,94.9685715 5.21367633,95.6468359 L48,101 L40.6283759,93.3525316 Z" id="path-5"></path>
        <filter x="-16.7%" y="-33.3%" width="136.8%" height="190.8%" filterUnits="objectBoundingBox" id="filter-6">
            <feMorphology radius="1" operator="dilate" in="SourceAlpha" result="shadowSpreadOuter1"></feMorphology>
            <feOffset dx="0" dy="2" in="shadowSpreadOuter1" result="shadowOffsetOuter1"></feOffset>
            <feGaussianBlur stdDeviation="2" in="shadowOffsetOuter1" result="shadowBlurOuter1"></feGaussianBlur>
            <feComposite in="shadowBlurOuter1" in2="SourceAlpha" operator="out" result="shadowBlurOuter1"></feComposite>
            <feColorMatrix values="0 0 0 0 0   0 0 0 0 0   0 0 0 0 0  0 0 0 0.5 0" type="matrix" in="shadowBlurOuter1"></feColorMatrix>
        </filter>
        <path d="M113.006891,114.34251 C115.0569,111.209344 117.622295,106.145955 119.016922,98.9891376 C121.066398,88.4712168 119.08012,81.1733306 118.202145,78.6703798 C117.918886,77.3398508 117.026645,76.1610564 115.691616,75.5781995 L98.0849113,67.8966835 L67.0582516,54.3602362 C64.8617134,53.4038116 62.3123185,54.4172541 61.3585454,56.6261268 C60.4067722,58.8356703 61.4152105,61.4029507 63.6104153,62.3613206 L95.3111228,76.191779 L102.560652,79.3545944 L105.664698,80.7088697 C102.513653,81.2813963 99.1909469,81.6960169 96.2760956,81.6660993 C94.5848099,81.6487256 93.029787,81.4830383 91.7282903,81.1087998 C85.1707416,79.2225141 83.0984,75.2692968 77.142501,73.1591656 C76.7322459,72.9375338 76.2943915,72.7535337 75.8288046,72.6186361 L70.6345509,71.1136995 L71.7567193,76.4572811 L91.609027,97.1662424 C92.8824578,98.4940882 93.5653719,100.241854 93.5327728,102.087154 C93.4995738,103.932521 92.7541281,105.654058 91.4338986,106.935351 C91.0311766,107.326225 90.5849892,107.655118 90.1121358,107.932224 C90.1576012,108.14849 90.2051332,108.36489 90.2688647,108.580484 C91.466231,112.631839 95.4988508,115.052886 99.5384704,114.307494 C99.826329,114.254367 100.114188,114.18769 100.401113,114.101827 C101.306154,113.831026 102.123331,113.409228 102.847511,112.88245 C103.269365,113.175857 103.68222,113.466514 104.079143,113.750799 L104.104075,113.88469 L112.407041,158.442956 C112.79763,160.53786 114.616913,162 116.661122,162 C116.926114,162 117.194973,161.975784 117.464499,161.924669 C119.816633,161.481204 121.366056,159.202166 120.925002,156.835387 L113.006891,114.34251 Z" id="path-7"></path>
        <filter x="-13.3%" y="-5.6%" width="126.7%" height="114.8%" filterUnits="objectBoundingBox" id="filter-8">
            <feMorphology radius="1" operator="dilate" in="SourceAlpha" result="shadowSpreadOuter1"></feMorphology>
            <feOffset dx="0" dy="2" in="shadowSpreadOuter1" result="shadowOffsetOuter1"></feOffset>
            <feGaussianBlur stdDeviation="2" in="shadowOffsetOuter1" result="shadowBlurOuter1"></feGaussianBlur>
            <feComposite in="shadowBlurOuter1" in2="SourceAlpha" operator="out" result="shadowBlurOuter1"></feComposite>
            <feColorMatrix values="0 0 0 0 0   0 0 0 0 0   0 0 0 0 0  0 0 0 0.5 0" type="matrix" in="shadowBlurOuter1"></feColorMatrix>
        </filter>
        <path d="M141.738671,89.2278243 C134.686941,86.0741496 126.403146,89.2051417 123.233214,96.2206916 C120.064749,103.235048 123.212347,111.476253 130.26281,114.629596 C132.254476,115.519987 134.343075,115.892658 136.388607,115.834492 C137.016473,114.311377 137.29674,112.915735 136.980273,111.713956 C136.774074,110.93081 136.30354,110.215844 135.555208,109.554667 L136.823607,108.650348 C143.636603,115.215231 129.106944,125.612674 128.871944,134.902982 C128.615944,145.024387 137.908073,146.20282 135.681274,144.160924 C133.454542,142.119027 132.059009,138.212251 140.177205,130.563711 C150.086267,121.227906 144.504003,111.327158 140.539605,106.001195 L141.783738,105.114253 C143.100604,106.89603 144.62627,109.235851 145.732936,111.925527 C146.972335,110.732238 148.016401,109.298128 148.766534,107.637723 C151.934866,100.623301 148.789201,92.3811673 141.738671,89.2278243 Z" id="path-9"></path>
        <filter x="-28.6%" y="-10.5%" width="157.1%" height="127.9%" filterUnits="objectBoundingBox" id="filter-10">
            <feMorphology radius="1" operator="dilate" in="SourceAlpha" result="shadowSpreadOuter1"></feMorphology>
            <feOffset dx="0" dy="2" in="shadowSpreadOuter1" result="shadowOffsetOuter1"></feOffset>
            <feGaussianBlur stdDeviation="2" in="shadowOffsetOuter1" result="shadowBlurOuter1"></feGaussianBlur>
            <feComposite in="shadowBlurOuter1" in2="SourceAlpha" operator="out" result="shadowBlurOuter1"></feComposite>
            <feColorMatrix values="0 0 0 0 0   0 0 0 0 0   0 0 0 0 0  0 0 0 0.5 0" type="matrix" in="shadowBlurOuter1"></feColorMatrix>
        </filter>
        <path d="M62.6780033,89.6752786 C62.7051983,89.2667371 62.7217907,88.8289905 62.7323244,88.3739322 L59.4547409,85.1130668 C58.5302483,84.1935676 57.896226,83.0469027 57.6205581,81.7964341 L50.9650105,51.5664784 C50.1568712,47.8942963 52.6115821,44.2762957 56.436577,43.5007078 C56.9206482,43.4019918 57.417525,43.3516427 57.9117168,43.3516427 C61.2378383,43.3516427 64.1524546,45.6223088 64.8409358,48.7518832 L65.9104913,53.6093841 C66.2300154,53.6862292 66.5454775,53.7813772 66.8525401,53.9088358 L68.1077102,54.4311584 C68.1762829,54.1745232 68.2480227,53.9099591 68.3141857,53.6591385 C70.6613558,47.1981305 68.5293361,39.2033245 62.7421009,37.490265 C56.9532133,35.7783949 48.2715344,38.3889506 44.2586529,47.8677342 C38.8210973,60.9310845 37.3210345,69.5426342 38.2623259,84.2926801 C38.4935868,85.9013411 38.8620619,87.2986283 39.3377336,88.519165 C39.6830069,89.876609 40.3845692,91.1695638 41.4613538,92.2535897 L64.5590716,115.510192 L62.0518985,152.199834 C61.7412558,156.752135 65.3336129,160.683727 70.0763533,160.982518 C70.2686461,160.994147 70.4589423,161 70.64855,161 C75.1438503,161 78.9291199,157.648442 79.2276453,153.281349 L81.9815701,112.975623 C82.138888,110.67073 81.2836567,108.407795 79.6229712,106.736561 L62.6780033,89.6752786 Z" id="path-11"></path>
        <filter x="-18.2%" y="-4.8%" width="136.4%" height="112.9%" filterUnits="objectBoundingBox" id="filter-12">
            <feMorphology radius="1" operator="dilate" in="SourceAlpha" result="shadowSpreadOuter1"></feMorphology>
            <feOffset dx="0" dy="2" in="shadowSpreadOuter1" result="shadowOffsetOuter1"></feOffset>
            <feGaussianBlur stdDeviation="2" in="shadowOffsetOuter1" result="shadowBlurOuter1"></feGaussianBlur>
            <feComposite in="shadowBlurOuter1" in2="SourceAlpha" operator="out" result="shadowBlurOuter1"></feComposite>
            <feColorMatrix values="0 0 0 0 0   0 0 0 0 0   0 0 0 0 0  0 0 0 0.5 0" type="matrix" in="shadowBlurOuter1"></feColorMatrix>
        </filter>
        <path d="M90.3832994,106.50926 C92.4852679,104.469791 92.5452732,101.102545 90.5181791,98.9884086 L70.5351709,78.1458456 L68.1914632,66.9865413 L63.2522634,64.8319135 C60.3106838,63.5476208 58.954816,60.0952696 60.23006,57.1357315 C61.1302051,55.05218 63.1413726,53.697077 65.385358,53.6255353 L64.460365,49.2213341 C63.856942,46.3474998 61.0496473,44.5060995 58.1945731,45.1170627 C55.3381772,45.7241696 53.5118496,48.5466749 54.1152065,51.4211076 L60.5036523,81.8396167 C60.7088465,82.8155356 61.1825445,83.7141283 61.8711511,84.432271 L82.9080182,106.373491 C83.9457524,107.455858 85.3287812,108 86.7137265,108 C88.0348335,108 89.3578571,107.50466 90.3832994,106.50926 Z" id="path-13"></path>
        <filter x="-21.1%" y="-9.5%" width="142.1%" height="125.4%" filterUnits="objectBoundingBox" id="filter-14">
            <feMorphology radius="1" operator="dilate" in="SourceAlpha" result="shadowSpreadOuter1"></feMorphology>
            <feOffset dx="0" dy="2" in="shadowSpreadOuter1" result="shadowOffsetOuter1"></feOffset>
            <feGaussianBlur stdDeviation="2" in="shadowOffsetOuter1" result="shadowBlurOuter1"></feGaussianBlur>
            <feComposite in="shadowBlurOuter1" in2="SourceAlpha" operator="out" result="shadowBlurOuter1"></feComposite>
            <feColorMatrix values="0 0 0 0 0   0 0 0 0 0   0 0 0 0 0  0 0 0 0.5 0" type="matrix" in="shadowBlurOuter1"></feColorMatrix>
        </filter>
    </defs>
    <g id="Page-2" stroke="none" stroke-width="1" fill="none" fill-rule="evenodd">
        <g id="sex-etsy-17" transform="translate(5.000000, -3.000000)" fill-rule="nonzero">
            <g id="Path">
                <use fill="black" fill-opacity="1" filter="url(#filter-2)" xlink:href="#path-1"></use>
                <use stroke="#1A1A1D" stroke-width="2" fill="#6F2232" xlink:href="#path-1"></use>
            </g>
            <g id="Oval" transform="translate(75.373561, 21.664877) rotate(-41.866690) translate(-75.373561, -21.664877) ">
                <use fill="black" fill-opacity="1" filter="url(#filter-4)" xlink:href="#path-3"></use>
                <use stroke="#1A1A1D" stroke-width="2" fill="#4E4E50" xlink:href="#path-3"></use>
            </g>
            <g id="Path">
                <use fill="black" fill-opacity="1" filter="url(#filter-6)" xlink:href="#path-5"></use>
                <use stroke="#1A1A1D" stroke-width="2" fill="#6F2232" xlink:href="#path-5"></use>
            </g>
            <g id="Path">
                <use fill="black" fill-opacity="1" filter="url(#filter-8)" xlink:href="#path-7"></use>
                <use stroke="#1A1A1D" stroke-width="2" fill="#6F2232" xlink:href="#path-7"></use>
            </g>
            <g id="Path">
                <use fill="black" fill-opacity="1" filter="url(#filter-10)" xlink:href="#path-9"></use>
                <use stroke="#1A1A1D" stroke-width="2" fill="#6F2232" xlink:href="#path-9"></use>
            </g>
            <g id="Path">
                <use fill="black" fill-opacity="1" filter="url(#filter-12)" xlink:href="#path-11"></use>
                <use stroke="#1A1A1D" stroke-width="2" fill="#4E4E50" xlink:href="#path-11"></use>
            </g>
            <g id="Path">
                <use fill="black" fill-opacity="1" filter="url(#filter-14)" xlink:href="#path-13"></use>
                <use stroke="#1A1A1D" stroke-width="2" fill="#4E4E50" xlink:href="#path-13"></use>
            </g>
        </g>
    </g>
</svg>

<svg xmlns="http://www.w3.org/2000/svg" width="160" height="166" xmlns:xlink="http://www.w3.org/1999/xlink"><title>sex-etsy-17</title><defs><path id="b" d="M14.34 54.25c-3.46-.97-7.08.97-8.08 4.34-1 3.36 1 6.88 4.47 7.85l27 7.55c.04-4.62.43-8.74 1.27-12.86l-24.66-6.9z"/><filter id="a" width="149%" height="181.6%" x="-24.2%" y="-30%" filterUnits="objectBoundingBox"><feMorphology radius="1" operator="dilate" in="SourceAlpha" result="shadowSpreadOuter1"/><feOffset dy="2" in="shadowSpreadOuter1" result="shadowOffsetOuter1"/><feGaussianBlur stdDeviation="2" in="shadowOffsetOuter1" result="shadowBlurOuter1"/><feComposite in="shadowBlurOuter1" in2="SourceAlpha" operator="out" result="shadowBlurOuter1"/><feColorMatrix values="0 0 0 0 0 0 0 0 0 0 0 0 0 0 0 0 0 0 0.5 0" in="shadowBlurOuter1"/></filter><ellipse id="d" cx="75.374" cy="21.665" rx="14.963" ry="14.97"/><filter id="c" width="153.5%" height="153.4%" x="-26.7%" y="-20%" filterUnits="objectBoundingBox"><feMorphology radius="1" operator="dilate" in="SourceAlpha" result="shadowSpreadOuter1"/><feOffset dy="2" in="shadowSpreadOuter1" result="shadowOffsetOuter1"/><feGaussianBlur stdDeviation="2" in="shadowOffsetOuter1" result="shadowBlurOuter1"/><feComposite in="shadowBlurOuter1" in2="SourceAlpha" operator="out" result="shadowBlurOuter1"/><feColorMatrix values="0 0 0 0 0 0 0 0 0 0 0 0 0 0 0 0 0 0 0.5 0" in="shadowBlurOuter1"/></filter><path id="f" d="M40.63 93.35c-1.13-1.17-1.93-2.6-2.34-4.18-.28-.72-.5-1.5-.7-2.3L7.7 83.1C4.2 82.44.8 84.7.12 88.16c-.68 3.45 1.6 6.8 5.1 7.5L48 101l-7.37-7.65z"/><filter id="e" width="136.8%" height="190.8%" x="-16.7%" y="-33.3%" filterUnits="objectBoundingBox"><feMorphology radius="1" operator="dilate" in="SourceAlpha" result="shadowSpreadOuter1"/><feOffset dy="2" in="shadowSpreadOuter1" result="shadowOffsetOuter1"/><feGaussianBlur stdDeviation="2" in="shadowOffsetOuter1" result="shadowBlurOuter1"/><feComposite in="shadowBlurOuter1" in2="SourceAlpha" operator="out" result="shadowBlurOuter1"/><feColorMatrix values="0 0 0 0 0 0 0 0 0 0 0 0 0 0 0 0 0 0 0.5 0" in="shadowBlurOuter1"/></filter><path id="h" d="M113 114.34c2.06-3.13 4.62-8.2 6.02-15.35 2.05-10.53.06-17.83-.82-20.33-.28-1.33-1.17-2.5-2.5-3.1L98.07 67.9 67.06 54.36c-2.2-.96-4.75.06-5.7 2.27-.95 2.2.06 4.77 2.25 5.73L95.3 76.2l7.26 3.15 3.1 1.36c-3.15.58-6.47 1-9.38.97-1.7-.02-3.25-.2-4.55-.56-6.56-1.88-8.63-5.83-14.6-7.94-.4-.22-.84-.4-1.3-.54l-5.2-1.5 1.13 5.34 19.85 20.7c1.28 1.33 1.97 3.08 1.93 4.93-.03 1.83-.78 3.55-2.1 4.84-.4.4-.85.72-1.32 1 .06.2.1.42.17.64 1.2 4.05 5.23 6.47 9.27 5.73.3-.05.57-.1.86-.2.9-.27 1.72-.7 2.45-1.22.42.3.83.6 1.23.87l.02.13 8.3 44.56c.4 2.1 2.22 3.56 4.26 3.56.27 0 .53-.02.8-.08 2.36-.44 3.9-2.72 3.47-5.08l-7.92-42.5z"/><filter id="g" width="126.7%" height="114.8%" x="-13.3%" y="-5.6%" filterUnits="objectBoundingBox"><feMorphology radius="1" operator="dilate" in="SourceAlpha" result="shadowSpreadOuter1"/><feOffset dy="2" in="shadowSpreadOuter1" result="shadowOffsetOuter1"/><feGaussianBlur stdDeviation="2" in="shadowOffsetOuter1" result="shadowBlurOuter1"/><feComposite in="shadowBlurOuter1" in2="SourceAlpha" operator="out" result="shadowBlurOuter1"/><feColorMatrix values="0 0 0 0 0 0 0 0 0 0 0 0 0 0 0 0 0 0 0.5 0" in="shadowBlurOuter1"/></filter><path id="j" d="M141.74 89.23c-7.05-3.16-15.34-.02-18.5 7-3.18 7-.03 15.25 7.02 18.4 2 .9 4.08 1.26 6.13 1.2.62-1.52.9-2.9.58-4.12-.2-.77-.68-1.48-1.42-2.15l1.26-.9c6.82 6.57-7.7 16.96-7.95 26.25-.25 10.12 9.04 11.3 6.8 9.26-2.22-2.04-3.6-5.95 4.5-13.6 9.92-9.33 4.33-19.23.37-24.56l1.24-.9c1.32 1.8 2.85 4.14 3.95 6.83 1.24-1.2 2.3-2.63 3.04-4.3 3.16-7 .02-15.25-7.03-18.4z"/><filter id="i" width="157.1%" height="127.9%" x="-28.6%" y="-10.5%" filterUnits="objectBoundingBox"><feMorphology radius="1" operator="dilate" in="SourceAlpha" result="shadowSpreadOuter1"/><feOffset dy="2" in="shadowSpreadOuter1" result="shadowOffsetOuter1"/><feGaussianBlur stdDeviation="2" in="shadowOffsetOuter1" result="shadowBlurOuter1"/><feComposite in="shadowBlurOuter1" in2="SourceAlpha" operator="out" result="shadowBlurOuter1"/><feColorMatrix values="0 0 0 0 0 0 0 0 0 0 0 0 0 0 0 0 0 0 0.5 0" in="shadowBlurOuter1"/></filter><path id="l" d="M62.68 89.68c.03-.4.04-.85.05-1.3l-3.28-3.27c-.92-.9-1.55-2.05-1.83-3.3l-6.65-30.23c-.8-3.68 1.64-7.3 5.47-8.07.48-.1.98-.15 1.47-.15 3.34 0 6.25 2.27 6.94 5.4l1.07 4.86c.33.1.65.18.95.3l1.26.53c.08-.26.15-.52.2-.77 2.36-6.46.23-14.46-5.56-16.17-5.8-1.72-14.47.9-18.48 10.37-5.44 13.06-6.94 21.67-6 36.42.23 1.6.6 3 1.08 4.22.34 1.36 1.04 2.65 2.12 3.73l23.1 23.26-2.5 36.7c-.32 4.55 3.27 8.48 8.02 8.78.2 0 .38.02.57.02 4.5 0 8.28-3.35 8.58-7.72l2.75-40.3c.16-2.3-.7-4.57-2.36-6.24L62.68 89.68z"/><filter id="k" width="136.4%" height="112.9%" x="-18.2%" y="-4.8%" filterUnits="objectBoundingBox"><feMorphology radius="1" operator="dilate" in="SourceAlpha" result="shadowSpreadOuter1"/><feOffset dy="2" in="shadowSpreadOuter1" result="shadowOffsetOuter1"/><feGaussianBlur stdDeviation="2" in="shadowOffsetOuter1" result="shadowBlurOuter1"/><feComposite in="shadowBlurOuter1" in2="SourceAlpha" operator="out" result="shadowBlurOuter1"/><feColorMatrix values="0 0 0 0 0 0 0 0 0 0 0 0 0 0 0 0 0 0 0.5 0" in="shadowBlurOuter1"/></filter><path id="n" d="M90.38 106.5c2.1-2.03 2.17-5.4.14-7.5L70.54 78.14 68.2 67l-4.95-2.17c-2.94-1.28-4.3-4.73-3.02-7.7.9-2.08 2.9-3.43 5.16-3.5l-.94-4.4c-.6-2.88-3.4-4.72-6.27-4.1-2.86.6-4.7 3.42-4.08 6.3l6.38 30.4c.2 1 .68 1.88 1.37 2.6l21.04 21.94c1.05 1.1 2.43 1.63 3.8 1.63 1.33 0 2.66-.5 3.68-1.5z"/><filter id="m" width="142.1%" height="125.4%" x="-21.1%" y="-9.5%" filterUnits="objectBoundingBox"><feMorphology radius="1" operator="dilate" in="SourceAlpha" result="shadowSpreadOuter1"/><feOffset dy="2" in="shadowSpreadOuter1" result="shadowOffsetOuter1"/><feGaussianBlur stdDeviation="2" in="shadowOffsetOuter1" result="shadowBlurOuter1"/><feComposite in="shadowBlurOuter1" in2="SourceAlpha" operator="out" result="shadowBlurOuter1"/><feColorMatrix values="0 0 0 0 0 0 0 0 0 0 0 0 0 0 0 0 0 0 0.5 0" in="shadowBlurOuter1"/></filter></defs><g fill="none"><g fill-rule="nonzero"><g id="Path" transform="translate(5 -3)"><use fill="#000" filter="url(#a)" xlink:href="#b"/><use fill="#6F2232" stroke="#1A1A1D" stroke-width="2" xlink:href="#b"/></g><g transform="translate(5 -3) rotate(-41.867 75.374 21.665)"><use fill="#000" filter="url(#c)" xlink:href="#d"/><use fill="#4E4E50" stroke="#1A1A1D" stroke-width="2" xlink:href="#d"/></g><g id="Path" transform="translate(5 -3)"><use fill="#000" filter="url(#e)" xlink:href="#f"/><use fill="#6F2232" stroke="#1A1A1D" stroke-width="2" xlink:href="#f"/></g><g id="Path" transform="translate(5 -3)"><use fill="#000" filter="url(#g)" xlink:href="#h"/><use fill="#6F2232" stroke="#1A1A1D" stroke-width="2" xlink:href="#h"/></g><g id="Path" transform="translate(5 -3)"><use fill="#000" filter="url(#i)" xlink:href="#j"/><use fill="#6F2232" stroke="#1A1A1D" stroke-width="2" xlink:href="#j"/></g><g id="Path" transform="translate(5 -3)"><use fill="#000" filter="url(#k)" xlink:href="#l"/><use fill="#4E4E50" stroke="#1A1A1D" stroke-width="2" xlink:href="#l"/></g><g transform="translate(5 -3)"><use fill="#000" filter="url(#m)" xlink:href="#n"/><use fill="#4E4E50" stroke="#1A1A1D" stroke-width="2" xlink:href="#n"/></g></g></g></svg>
